assets/icons/carriage/HALBSPEISEWAGENERSTEKLASSE.svg

<svg width="73" height="34" viewBox="0 0 73 34" fill="none" xmlns="http://www.w3.org/2000/svg">
<rect x="39" width="34" height="34" rx="17" fill="#414141"/>
<rect width="34" height="34" rx="17" fill="#414141"/>
<path d="M10.9859 27V24.15H16.1759V9.75L11.2259 10.65V8.07L17.4059 6H19.3559V24.15H24.9359V27H10.9859Z" fill="white"/>
<path d="M46.3773 27L45.1486 25.7706L57.4351 13.4766C57.006 12.5399 56.9085 11.569 57.1425 10.564C57.3766 9.55904 57.9324 8.61748 58.81 7.73933C59.6876 6.8807 60.7505 6.32942 61.9986 6.08549C63.2467 5.84156 64.2706 6.11964 65.0702 6.91973C65.8893 7.73933 66.1672 8.76383 65.9039 9.99324C65.6407 11.2226 65.0507 12.3057 64.1341 13.2424C63.3345 14.062 62.4423 14.5986 61.4574 14.8523C60.4725 15.106 59.5511 15.0475 58.693 14.6767L56.733 16.6379L65.8601 25.7706L64.6314 27L55.5043 17.8673L46.3773 27ZM50.0339 16.7257L46.5528 13.2424C45.5582 12.2471 45.0413 11.0665 45.0023 9.70052C44.9633 8.33452 45.4119 7.12463 46.348 6.07085L53.5151 13.2424L50.0339 16.7257Z" fill="white"/>
</svg>

<svg xmlns="http://www.w3.org/2000/svg" width="73" height="34" fill="none"><rect width="34" height="34" x="39" fill="#414141" rx="17"/><rect width="34" height="34" fill="#414141" rx="17"/><path fill="#fff" d="M10.986 27v-2.85h5.19V9.75l-4.95.9V8.07L17.406 6h1.95v18.15h5.58V27h-13.95ZM46.377 27l-1.228-1.23 12.286-12.293a4.41 4.41 0 0 1-.293-2.913c.235-1.005.79-1.947 1.668-2.825.878-.858 1.94-1.41 3.189-1.654 1.248-.243 2.272.035 3.071.835.82.82 1.097 1.844.834 3.073-.263 1.23-.853 2.313-1.77 3.25-.8.819-1.692 1.356-2.677 1.61-.985.253-1.906.194-2.764-.176l-1.96 1.96 9.127 9.134L64.631 27l-9.127-9.133L46.377 27Zm3.657-10.274-3.481-3.484c-.995-.995-1.512-2.176-1.55-3.541-.04-1.366.409-2.576 1.345-3.63l7.167 7.171-3.481 3.484Z"/></svg>
